X: 5444
T: Bunch Of Green Rushes, The
R: reel
M: 4/4
K: Dmixolydian
d|:cAGA ~=F3d|cAGc AddA|cAGA =F2eg|^fdec Ad~d2:|
|:AddA cAGA|~=FGAc {d}cAG2|AddA cAGA|1 cdeg {a}gedc:|2 cdeg {a}gece||
d2^fd adfd|c2ec gcec|d2fd adfd|cAGc ADDA|
d2fd adfd|c2ec gceg|gf (3gfe fedc|dcAG Add||

